X:126
T:Reels simple chords 420
M:3/4
L:1/8
K:A
cd [e2A,2C2E2] cB | A2 A2 [B2E,2G,2B,2D2] | cB A2 E2 | [FD,F,A,]E FG A2 | Bc [d2B,2D2F2] c2 |
c2 B2 [e2A,2C2E2] | cB A2 A2 | [B2E,2G,2B,2D2] cB A2 | E2 [FD,F,A,]E FG |
A2 B2 [c2A,2C2E2] | A2 A2 cd | [e2A,2C2E2] cB A2 | A2 [B2E,2G,2B,2D2] cB |
A2 E2 [FD,F,A,]E | FG A2 Bc | [d2B,2D2F2] c2 c2 | B2 [e2A,2C2E2] cB |
A2 A2 [B2E,2G,2B,2D2] | cB A2 E2 | [FD,F,A,]E FG A2 | B2 [c2A,2C2E2] A2 |
A2 cd [e2A,2C2E2] | fg ag fe | [f2D,2F,2A,2] f2 fa | gf [e2A,2C2E2] c2 |
c2 BA [GB,DF]A | Bc B4 | [e2A,2C2E2] fg ag | fe [f2D,2F,2A,2] f2 |
f2 e2 [fD,F,A,]g | af ga bg | [a2A,2C2E2] A2 A2 | cd [e2A,2C2E2] fg |
ag fe [f2D,2F,2A,2] | f2 fa gf | [e2A,2C2E2] c2 c2 | BA [GB,DF]A Bc |
B4 [e2A,2C2E2] | fg ag fe | [f2D,2F,2A,2] f2 f2 | e2 [fD,F,A,]g af |
ga bg [a2A,2C2E2] | A2 A2 |


